X:2025
T:Polsk
T:(Totakt-pols, nr. MN-286)
S:efter Mads Nielsen
R:Totakt-pols
O:Tyvkjaer Mark, Vejle amt, Danmark
Z:ABC-transkribering av Åke Persson
M:2/4
L:1/8
Q:1/4=108
K:D
|: "D"a2 "G/A"a/b/a/g/ | "D"fd"G/A"ge | "D"df"A"eg | "D"f/e/f/g/ fd | a2 "G/A"a/b/a/g/ | "D"fd"G/A"ge | "D"df"A"ec | "D"d2 d2 :| 
|: "A"edef | ga/g/ "(D)"fd | "A"cdef | ga/g/ "(D)"fd | "D"a2 "G/A"a/b/a/g/ | "D"fd"G/A"ge | "D"df"A"ec | "D"d2 d2 :|
(:musicend:)

En tvåtaktsvariant av "Ach du lieber Augustin"?
(:music:)
